X:1
T:Title
%%score { ( 1 3 ) | ( 2 4 5 ) }
L:1/8
M:3/4
K:F
V:1 treble nm="Grand Piano"
V:3 treble 
V:2 bass 
V:4 bass 
V:5 bass 
V:1
 z2 z2[Q:1/4=100] C2 | CF F2 G2 | A[CGB] [FAc]3 [CFA] | [CFA]3 [CEG] C[B,EG] |[M:2/4] [A,CF]4 | %5
[M:1/4] [FA]2 |[M:3/4] [GB][FA] [EG]2 [Ed]2 | cA c2 z[K:bass] F, | %8
 [F,B,D][K:treble][DGB] [CFA]2 [B,EG]2 |[M:2/4] [A,F]4 |[M:6/8] [EG]-[CE-G-][CE-G-] [CEG]AB | %11
 [EG]-[CE-G-][CE-G-] [CEG]3 | [FA]-[CF-A-][CF-A-] [CFA]Bc | [FA]-[CF-A-][CF-A-] [CFA]3 | %14
 [CEB]2 [EA] [EB]2 [EA] | [EB]2 [EB] [EB][Ec][Ed] | [Fc]3- [Fc]2 [FA] | [EG]3- [EG]2 c | f2 f fed | %19
 [FAc]2 [CFA] [=B,FG]2 [B,F] | G3- [EG]3 | F6 |] %22
V:2
 z2 z2 [F,A,]2 | [F,A,][F,A,C] [F,A,C]2 [F,B,F]2 | [F,CF]F, F,3 F, | C,3 C, E,C, |[M:2/4] F,4 | %5
[M:1/4] F,2 |[M:3/4] [C,G,][C,A,] [C,B,]2 [C,G,]2 | [F,A,F][F,CF] [A,F]2 z F,, | B,,G,, C,2 C,2 | %9
[M:2/4] F,4 |[M:6/8] C,C,C, C,[K:treble]FG | C,C,C, .C,3 | F,F,F, F,[K:treble]GA | F,F,F, .F,3 | %14
 C,2 [C,^F,] [C,G,]2 [C,F,] | [C,G,]2 [C,G,] [C,G,][C,A,][C,B,] | [C,A,]3- [C,A,]2 [C,=B,] | %17
 [C,C]3- [C,C]2[K:treble] [B,CE] | [A,CF]2 [A,^CF] [B,DB][B,EB][B,FB] | F,2 F, D,2 D, | z3 B,3 | %21
 [F,A,]6 |] %22
V:3
 x6 | x6 | x6 | x6 |[M:2/4] x4 |[M:1/4] x2 |[M:3/4] x6 | z2 z2 C2[K:bass] | x[K:treble] x5 | %9
[M:2/4] x4 |[M:6/8] .C3 z3 | .C3 z3 | .C3 z3 | .C3 z3 | x6 | x6 | x6 | x6 | x6 | x6 | [CF]3 z3 | %21
 x6 |] %22
V:4
 x6 | x6 | x6 | x6 |[M:2/4] x4 |[M:1/4] x2 |[M:3/4] x6 | z2 z2 A,2 | x6 |[M:2/4] x4 | %10
[M:6/8] x4[K:treble] x2 | x6 | x4[K:treble] x2 | x6 | x6 | x6 | x6 | x5[K:treble] x | x6 | x6 | %20
 C,6 | x6 |] %22
V:5
 x6 | x6 | x6 | x6 |[M:2/4] x4 |[M:1/4] x2 |[M:3/4] x6 | z2 F,4 | x6 |[M:2/4] x4 | %10
[M:6/8] x4[K:treble] x2 | x6 | x4[K:treble] x2 | x6 | x6 | x6 | x6 | x5[K:treble] x | x6 | x6 | %20
 x6 | x6 |] %22

